X:1
T:1. Bohmischer Wind
M:3/4
K:Eb
L:1/8
|: E2 EFGA | B4 B2 | \
M:4/4
L:1/4
cc B2 | cc B2 | \
M:3/4
L:1/8
A3 A F2 | G4 E2 |
M:4/4
L:1/4
FF E2 | FF E2 :: \
M:3/4
L:1/8
B3 A F2 | G4 B2 | \
M:4/4
L:1/4
ce B2 | ce B2 |
M:3/4
L:1/8
B3 A F2 | G4 E2 | \
M:4/4
L:1/4
FF E2 |1 FF E2 :|2 Bd e2 ||
K:Ab
M:3/4
L:1/8
|: A2 ABcd | e4 e2 | \
M:4/4
L:1/4
ff e2 | ff e2 | \
M:3/4
L:1/8
d3 d B2 | c4 A2 |
M:4/4
L:1/4
BB A2 | BB A2 :: \
M:3/4
L:1/8
e3 d B2 | c4 E2 | \
M:4/4
L:1/4
FA E2 | FA E2 |
M:3/4
L:1/8
e3 d B2 | c4 A2 | \
M:4/4
L:1/4
BB A2 | BB A2 :|

